22x22/actions/combined_fragment.svg

<svg xmlns="http://www.w3.org/2000/svg" viewBox="0 0 22 22"><path style="fill:currentColor;fill-opacity:1;stroke:none;color:#5d656b" d="M2 5v12h18V5H2zm1 1h4a4 4 0 0 1-4 4V6zm5 0h11v10H3v-5a5 5 0 0 0 5-5z"/></svg>

<svg xmlns="http://www.w3.org/2000/svg" viewBox="0 0 22 22">
  <defs id="defs3051">
    <style type="text/css" id="current-color-scheme">
      .ColorScheme-Text {
        color:#5d656b;
      }
      </style>
  </defs>
 <path 
    style="fill:currentColor;fill-opacity:1;stroke:none" 
    d="M 2 5 L 2 17 L 20 17 L 20 5 L 2 5 z M 3 6 L 7 6 A 4 4.0000086 0 0 1 3 10 L 3 6 z M 8 6 L 19 6 L 19 16 L 3 16 L 3 11 A 5 5 0 0 0 8 6 z "
    class="ColorScheme-Text"
    />  
</svg>
